icons/outline/calendar-week.svg

<!--
tags: [weekly-calendar, week-view, date-week, weekly-schedule, timeframe, calendar-grid, week, week-planner, weekly, date-grid]
category: System
version: "2.41"
unicode: "fd30"
-->
<svg
  xmlns="http://www.w3.org/2000/svg"
  width="24"
  height="24"
  viewBox="0 0 24 24"
  fill="none"
  stroke="currentColor"
  stroke-width="2"
  stroke-linecap="round"
  stroke-linejoin="round"
>
  <path d="M4 7a2 2 0 0 1 2 -2h12a2 2 0 0 1 2 2v12a2 2 0 0 1 -2 2h-12a2 2 0 0 1 -2 -2v-12zm12 -4v4m-8 -4v4m-4 4h16m-13 3h.013m2.997 0h.005m2.995 0h.005m3 0h.005m-3.005 3h.005m-6.01 0h.005m2.995 0h.005" />
</svg>

<!--
tags: [weekly-calendar, week-view, date-week, weekly-schedule, timeframe, calendar-grid, week, week-planner, weekly, date-grid]
category: System
version: "2.41"
unicode: "fd30"
-->
<svg
  xmlns="http://www.w3.org/2000/svg"
  width="24"
  height="24"
  viewBox="0 0 24 24"
  fill="none"
  stroke="currentColor"
  stroke-width="2"
  stroke-linecap="round"
  stroke-linejoin="round"
>
    <path d="M4 7a2 2 0 0 1 2 -2h12a2 2 0 0 1 2 2v12a2 2 0 0 1 -2 2h-12a2 2 0 0 1 -2 -2v-12zM16 3v4M8 3v4M4 11h16M7 14h.013M10.01 14h.005M13.01 14h.005M16.015 14h.005M13.015 17h.005M7.01 17h.005M10.01 17h.005" />
</svg>
